X: 3349
T: Bells Of Gorbio, The
R: jig
M: 6/8
K: Bminor
|:Bff fed|e2d cBA|Bff fef|a2e f3|
Bff fed|e2d cBA|f<af fed|cBA B3:|
|:d2c B2f|d2c B2f|f<af fed|ede f3|
d2c B2f|d2c B2f|f<af fed|cBA B2f:|
|:B3 Bdf|e2d cBA|B3 Bdf|a2e f3|
B3 Bdf|e2d cBA|f<af fed|cBA B2f:|
|:B2d c2f|B<dd c2f|f<af fed|ede f3|
B2d c2f|B<dd c2f|f<af fed|cBA B3:|
aff f<af|ede f3|B2d c2f|B<dd c2f|
aff f<af|ede f3|f<af fed|cBA B3|
aff f<af|ede f3|fed c2f|B<dd c2f|
B3 B<dB|c<ea f3|f<af fed|cBA B3||

